source/images/icons/icon-cart-2.svg

<?xml version="1.0" encoding="utf-8"?><!-- Uploaded to: SVG Repo, www.svgrepo.com, Generator: SVG Repo Mixer Tools -->
<svg width="35px" height="35px" viewBox="0 0 24 24" fill="none" xmlns="http://www.w3.org/2000/svg">
<path d="M2.08416 2.7512C2.22155 2.36044 2.6497 2.15503 3.04047 2.29242L3.34187 2.39838C3.95839 2.61511 4.48203 2.79919 4.89411 3.00139C5.33474 3.21759 5.71259 3.48393 5.99677 3.89979C6.27875 4.31243 6.39517 4.76515 6.4489 5.26153C6.47295 5.48373 6.48564 5.72967 6.49233 6H17.1305C18.8155 6 20.3323 6 20.7762 6.57708C21.2202 7.15417 21.0466 8.02369 20.6995 9.76275L20.1997 12.1875C19.8846 13.7164 19.727 14.4808 19.1753 14.9304C18.6236 15.38 17.8431 15.38 16.2821 15.38H10.9792C8.19028 15.38 6.79583 15.38 5.92943 14.4662C5.06302 13.5523 4.99979 12.5816 4.99979 9.64L4.99979 7.03832C4.99979 6.29837 4.99877 5.80316 4.95761 5.42295C4.91828 5.0596 4.84858 4.87818 4.75832 4.74609C4.67026 4.61723 4.53659 4.4968 4.23336 4.34802C3.91052 4.18961 3.47177 4.03406 2.80416 3.79934L2.54295 3.7075C2.15218 3.57012 1.94678 3.14197 2.08416 2.7512Z" fill="#1C274C"/>
<path d="M7.5 18C8.32843 18 9 18.6716 9 19.5C9 20.3284 8.32843 21 7.5 21C6.67157 21 6 20.3284 6 19.5C6 18.6716 6.67157 18 7.5 18Z" fill="#1C274C"/>
<path d="M16.5 18.0001C17.3284 18.0001 18 18.6716 18 19.5001C18 20.3285 17.3284 21.0001 16.5 21.0001C15.6716 21.0001 15 20.3285 15 19.5001C15 18.6716 15.6716 18.0001 16.5 18.0001Z" fill="#1C274C"/>
</svg>

<svg viewBox="0 0 24 24" fill="none" xmlns="http://www.w3.org/2000/svg"><path d="M2.08 2.75c.14-.39.57-.6.96-.46l.3.1c.62.23 1.14.4 1.55.61.44.22.82.48 1.1.9.29.41.4.87.46 1.36.02.22.04.47.04.74h10.64c1.69 0 3.2 0 3.65.58.44.57.27 1.44-.08 3.18l-.5 2.43c-.32 1.53-.47 2.3-1.02 2.74-.56.45-1.34.45-2.9.45h-5.3c-2.79 0-4.18 0-5.05-.91-.87-.92-.93-1.89-.93-4.83v-2.6c0-.74 0-1.24-.04-1.62a1.4 1.4 0 0 0-.2-.67 1.24 1.24 0 0 0-.53-.4 14.5 14.5 0 0 0-1.43-.55l-.26-.1a.75.75 0 0 1-.46-.95Zm5.42 15.25a1.5 1.5 0 1 1 0 3 1.5 1.5 0 0 1 0-3Zm9 0a1.5 1.5 0 1 1 0 3 1.5 1.5 0 0 1 0-3Z" fill="#1C274C"/></svg>
